!!!COA:	Josquin des Prez
!!!CDT:	~1450-1521/08/27
!!!OTL@@LAT:	Nunc dimittis
!!!OTL@ENG:	Now let depart
!!!ONB: long name: Nunc dimittis servum tuum
!!!AGN:	Motet
!!!SCT:	NJE 20.8
!!!SCA:	New Josquin Edition 20.8
!!!voices:	4
**kern	**kern	**kern	**kern
*staff4	*staff3	*staff2	*staff1
*Ivox	*Ivox	*Ivox	*Ivox
*I"Bassus	*I"Tenor	*I"Altus	*I"Superius
*I'B	*I'T	*I'A	*I'S
*clefF4	*clefGv2	*clefGv2	*clefG2
*k[]	*k[]	*k[]	*k[]
*M2/1	*M2/1	*M2/1	*M2/1
*met(C|)	*met(C|)	*met(C|)	*met(C|)
=1-	=1-	=1-	=1-
0r	1.F	0r	0r
.	2F/	.	.
=2	=2	=2	=2
1r	1F	0r	0r
[1F	1D	.	.
=3	=3	=3	=3
2F\]	1.A	0r	0r
2F\	.	.	.
1F	.	.	.
.	2A/	.	.
=4	=4	=4	=4
1D	1A	0r	0r
[1A	1F	.	.
=5	=5	=5	=5
2A\]	2.c\	0r	0r
2A\	.	.	.
.	4d\	.	.
1A	2e\	.	.
.	[2f\	.	.
=6	=6	=6	=6
1F	2f\]	0r	0r
.	4e\	.	.
.	4d\	.	.
[1A	2c\	.	.
.	4F/	.	.
.	4G/	.	.
=7	=7	=7	=7
1A]	4A/	0r	0r
.	4B\	.	.
.	4c\	.	.
.	4A/	.	.
1G	1B	.	.
=8	=8	=8	=8
0F	1A	0r	0r
.	2r	.	.
.	2D/	.	.
=9	=9	=9	=9
2r	1F	0r	0r
2D\	.	.	.
1F	2D/	.	.
.	[2F/	.	.
=10	=10	=10	=10
2D\	4F/]	0r	0r
.	4G/	.	.
2.F\	2A/	.	.
.	2D/	.	.
4G\	.	.	.
2A\	[2F/	.	.
=11	=11	=11	=11
2D\	4F/]	0r	0r
.	4G/	.	.
1F	4A/	.	.
.	4B\	.	.
.	4c\	.	.
.	4d\	.	.
2E\	[2e\	.	.
=12	=12	=12	=12
1G	4e\]	0r	0r
.	4d\	.	.
.	1d	.	.
1E	.	.	.
.	2c#i\	.	.
=13	=13	=13	=13
[0D	[0d	0r	1.f
.	.	.	2f/
=14	=14	=14	=14
0D_	0d_	1r	1f
.	.	[1f	1d
=15	=15	=15	=15
0D_	0d_	2f\]	1.a
.	.	2f\	.
.	.	1f	.
.	.	.	2a/
=16	=16	=16	=16
0D]	0d]	1d	1a
.	.	[1a	1f
=17	=17	=17	=17
0r	0r	2a\]	2.cc\
.	.	2a\	.
.	.	.	4dd\
.	.	1a	2ee\
.	.	.	[2ff\
=18	=18	=18	=18
0r	0r	1f	2ff\]
.	.	.	4ee\
.	.	.	4dd\
.	.	[1a	2cc\
.	.	.	4f/
.	.	.	4g/
=19	=19	=19	=19
0r	0r	1a]	4a/
.	.	.	4b\
.	.	.	4cc\
.	.	.	4a/
.	.	1g	1b
=20	=20	=20	=20
0r	0r	0f	1a
.	.	.	2r
.	.	.	2d/
=21	=21	=21	=21
0r	0r	2r	1f
.	.	2d\	.
.	.	1f	2d/
.	.	.	[2f/
=22	=22	=22	=22
0r	0r	2d\	4f/]
.	.	.	4g/
.	.	2.f\	2a/
.	.	.	2d/
.	.	4g\	.
.	.	2a\	[2f/
=23	=23	=23	=23
0r	0r	2d\	4f/]
.	.	.	4g/
.	.	1f	4a/
.	.	.	4b\
.	.	.	4cc\
.	.	.	4dd\
.	.	2e\	[2ee\
=24	=24	=24	=24
0r	1r	1g	4ee\]
.	.	.	4dd\
.	.	.	1dd
.	1A	1e	.
.	.	.	2cc#i\
=25	=25	=25	=25
0D	2B\	0d	0dd
.	2A/	.	.
.	1d	.	.
=26	=26	=26	=26
2E\	2c\	0r	0r
2D\	1f	.	.
1G	.	.	.
.	2e\	.	.
=27	=27	=27	=27
1F	2d\	0r	0r
.	2.c\	.	.
[1c	.	.	.
.	4B\	.	.
.	[2A/	.	.
=28	=28	=28	=28
2c\]	2A/]	0r	0r
2c\	4G/	.	.
.	4F/	.	.
2B\	2G/	.	.
[2A\	2F/	.	.
=29	=29	=29	=29
2A\]	1f	0r	0r
4G\	.	.	.
4F\	.	.	.
1G	2e\	.	.
.	[2d\	.	.
=30	=30	=30	=30
[0D	2d\]	0r	0a
.	4c\	.	.
.	4B\	.	.
.	2A/	.	.
.	2D/	.	.
=31	=31	=31	=31
0D]	0d	1r	2b\
.	.	.	2a/
.	.	1d	1dd
=32	=32	=32	=32
0r	0r	2e\	2cc\
.	.	2d\	1f
.	.	1g	.
.	.	.	2e/
=33	=33	=33	=33
0r	0r	0f	2.d/
.	.	.	4e/
.	.	.	4f/
.	.	.	4g/
.	.	.	2a/
=34	=34	=34	=34
0r	2.D/	2r	2d/
.	.	1f	2.a/
.	4E/	.	.
.	4F/	.	.
.	4G/	.	4b\
.	2A/	2e\	2cc\
=35	=35	=35	=35
0r	2.B-i\	2d\	1dd
.	.	1f	.
.	4A/	.	.
.	1G	.	1b
.	.	2e\	.
=36	=36	=36	=36
2r	1F	0f	2.a/
1F	.	.	.
.	.	.	4b\
.	1r	.	4cc\
.	.	.	4a/
2F\	.	.	[2cc\
=37	=37	=37	=37
1E	2r	0r	4cc\]
.	.	.	4b\
.	1c	.	2g/
1F	.	.	1a
.	2c\	.	.
=38	=38	=38	=38
2.G\	1B	0r	1d
4F\	.	.	.
4E\	1c	.	1r
4D\	.	.	.
2E\	.	.	.
=39	=39	=39	=39
0D	2.d\	2r	0r
.	.	1f	.
.	4c\	.	.
.	4B\	.	.
.	4A/	.	.
.	2B\	2f\	.
=40	=40	=40	=40
0r	2.c\	1e	2r
.	.	.	1cc
.	4B\	.	.
.	4A/	1f	.
.	4G/	.	.
.	2A/	.	2cc\
=41	=41	=41	=41
0r	1G	2.g\	1b
.	.	4f\	.
.	1r	4e\	1cc
.	.	4d\	.
.	.	2e\	.
=42	=42	=42	=42
0r	1D	2d\	2dd\
.	.	1f	2.a/
.	[1A	.	.
.	.	.	4b\
.	.	4e\	4cc\
.	.	4d\	4dd\
=43	=43	=43	=43
0r	2A/]	2c\	2ee\
.	2B-i\	2d\	1dd
.	1A	1e	.
.	.	.	2cc\
=44	=44	=44	=44
1D	2F/	1d	2dd\
.	1f	.	2.a/
[1A	.	1r	.
.	.	.	4b\
.	2e\	.	4cc\
.	.	.	4dd\
=45	=45	=45	=45
2A\]	2c\	0r	2ee\
2B-i\	2d\	.	1dd
1A	1e	.	.
.	.	.	2cc#i\
=46	=46	=46	=46
1D	1d	2r	[0dd
.	.	2.d\	.
2r	2G/	.	.
.	.	4e\	.
2D\	[2d\	4f\	.
.	.	4g\	.
=47	=47	=47	=47
2F\	2d\]	2a\	0dd_
2G\	2B\	1g	.
1D	1A	.	.
.	.	2f\	.
=48	=48	=48	=48
1r	2.G/	2g\	0dd]
.	.	2.d\	.
.	4A/	.	.
2r	4B\	.	.
.	4c\	4e\	.
2D\	[2d\	4f\	.
.	.	4g\	.
=49	=49	=49	=49
2F\	2d\]	2a\	1r
2G\	2B\	1g	.
1D	1A	.	1dd
.	.	2f#i\	.
=50	=50	=50	=50
1r	1G	2.g\	2dd\
.	.	.	2.dd\
.	.	4d\	.
2r	2.d\	1f	.
.	.	.	4cc\
2D\	.	.	4b\
.	4c\	.	4a/
=51	=51	=51	=51
2E\	2B\	2e\	2g/
2F\	2A/	2d\	1a
1E	1B	1e	.
.	.	.	2g#i/
=52	=52	=52	=52
1AA	1A	1c	1a
[1AA	[1A	[1e	[1cc
=53	=53	=53	=53
1AA]	1A]	1e]	1cc]
1E	1G	1e	1b
=54	=54	=54	=54
0F	0A	1c	0a
.	.	1d	.
=55	=55	=55	=55
[0E	0B	[0e	[0g
=56	=56	=56	=56
0E]	2r	0e_	0g]
.	2E/	.	.
.	1B	.	.
=57	=57	=57	=57
2r	1c	0e]	0r
2AA/	.	.	.
1E	1B	.	.
=58	=58	=58	=58
1F	2A/	0r	0r
.	2.c\	.	.
1E	.	.	.
.	4c\	.	.
.	2B\	.	.
=59	=59	=59	=59
2D\	1d	0r	0r
2.F\	.	.	.
.	1c	.	.
4F\	.	.	.
2E\	.	.	.
=60	=60	=60	=60
1G	2.B\	0r	0r
.	4G/	.	.
2F\	4A/	.	.
.	4B\	.	.
[2E\	2c\	.	.
=61	=61	=61	=61
2E\]	2B\	0r	2r
4D\	1A	.	2e/
4C/	.	.	.
1BB	.	.	1b
.	2G#i/	.	.
=62	=62	=62	=62
1AA	1A	2r	1cc
.	.	2A/	.
1r	1r	1e	1b
=63	=63	=63	=63
0r	0r	1f	2a/
.	.	.	2.cc\
.	.	1e	.
.	.	.	4cc\
.	.	.	2b\
=64	=64	=64	=64
0r	0r	2d\	1dd
.	.	2.f\	.
.	.	.	1cc
.	.	4f\	.
.	.	2e\	.
=65	=65	=65	=65
0r	0r	1g	2.b\
.	.	.	4g/
.	.	2f\	2a/
.	.	[2e\	2b\
=66	=66	=66	=66
1c	0r	2e\]	2.e/
.	.	2c\	.
.	.	.	4f/
2B\	.	2d\	2g/
[2A\	.	[2f\	2a/
=67	=67	=67	=67
2A\]	0r	2f\]	2e/
2G\	.	2.e\	2g/
2A\	.	.	1f
.	.	4d\	.
2B\	.	2d\	.
=68	=68	=68	=68
2.E\	2r	[0e	0r
.	2c\	.	.
4F\	.	.	.
2G\	2B\	.	.
2A\	[2c\	.	.
=69	=69	=69	=69
2E\	2c\]	0e]	0r
1A	4B\	.	.
.	4A/	.	.
.	1B	.	.
2G#i\	.	.	.
=70	=70	=70	=70
1A	[0A	2r	2.a/
.	.	2f\	.
.	.	.	4b\
2A\	.	2e\	2cc\
[2D\	.	[2f\	2dd\
=71	=71	=71	=71
2D\]	0A_	2f\]	2a/
4C/	.	4e\	1dd
4BB/	.	4d\	.
1AA	.	1e	.
.	.	.	2cc#i\
=72	=72	=72	=72
1.D	0A]	2.d\	[0dd
.	.	4e\	.
.	.	4f\	.
.	.	4g\	.
2C/	.	[2a\	.
=73	=73	=73	=73
2.BB/	0D	2a\]	0dd]
.	.	4g#i\	.
4AA/	.	4f#i\	.
1BB	.	1g#i	.
=74	=74	=74	=74
1AA	0r	2a\	2.cc\
.	.	4A/	.
.	.	4B\	4b\
1r	.	4c\	2a/
.	.	4d\	.
.	.	[2e\	2g/
=75	=75	=75	=75
1r	1d	2e\]	1f
.	.	2d\	.
1A	2c\	[1e	1e
.	2A/	.	.
=76	=76	=76	=76
2G\	2B\	1e]	0r
2E\	2c\	.	.
2F\	2A/	1r	.
2G\	2B\	.	.
=77	=77	=77	=77
2E\	2c\	0r	0r
2F\	1d	.	.
1G	.	.	.
.	[2e\	.	.
=78	=78	=78	=78
2D\	4e\]	1r	0r
.	4d\	.	.
2F\	1d	.	.
1E	.	1g	.
.	2c#i\	.	.
=79	=79	=79	=79
1D	1d	2f\	1dd
.	.	2d\	.
1r	2r	2e\	2cc\
.	2r	2f\	2a/
=80	=80	=80	=80
0r	0r	2d\	2b\
.	.	2e\	2cc\
.	.	2f\	2a/
.	.	2d\	2b\
=81	=81	=81	=81
0r	0r	2e\	2.cc\
.	.	4A/	.
.	.	4B\	4b\
.	.	4c\	2a/
.	.	4d\	.
.	.	[2e\	2g/
=82	=82	=82	=82
0r	0r	2e\]	1f
.	.	1d	.
.	.	.	1e
.	.	2c#i\	.
=83	=83	=83	=83
0r	2r	2d\	2d/
.	2d\	2f\	2a/
.	2d\	2f\	2a/
.	2d\	2f\	2b\
=84	=84	=84	=84
0r	1e	1g	1cc
.	1e	1g	2b\
.	.	.	2cc\
=85	=85	=85	=85
0r	1d	1f	4dd\
.	.	.	4cc\
.	.	.	4b\
.	.	.	4a/
.	2c\	2e\	2cc\
.	2d\	[2f\	[2b\
=86	=86	=86	=86
0r	2A/	2f\]	4b\]
.	.	.	4a/
.	2c\	2e\	1a
.	1B	1d	.
.	.	.	2g#i/
=87	=87	=87	=87
1F	2r	2c\	1a
.	2A/	1d	.
2F\	2A/	.	1r
2G\	2B\	2e\	.
=88	=88	=88	=88
1A	1c	1f	0r
1A	1c	2e\	.
.	.	2f\	.
=89	=89	=89	=89
1G	1B	4g\	0r
.	.	4f\	.
.	.	4e\	.
.	.	4d\	.
2F\	1A	2f\	.
2G\	.	[2e\	.
=90	=90	=90	=90
2D\	2A/	4e\]	0r
.	.	4d\	.
2F\	1A	1d	.
1E	.	.	.
.	2G/	2c#i\	.
=91	=91	=91	=91
0D	0A	1d	2r
.	.	.	2a/
.	.	2r	2a/
.	.	2d\	2a/
=92	=92	=92	=92
0r	0r	2d\	1b
.	.	2d\	.
.	.	1e	1g
=93	=93	=93	=93
0r	0r	2c\	2g/
.	.	2e\	1cc
.	.	2d\	.
.	.	2d\	2b\
=94	=94	=94	=94
1r	2r	2.c\	1cc
.	2A/	.	.
.	.	4d\	.
1D	2A/	2e\	1r
.	2A/	[2f\	.
=95	=95	=95	=95
2D\	1B	2f\]	0r
2D\	.	4e\	.
.	.	4d\	.
1E	1G	[1g	.
=96	=96	=96	=96
2C/	2G/	2g\]	0r
2E\	1c	4f\	.
.	.	4e\	.
2D\	.	1f	.
2D\	2B\	.	.
=97	=97	=97	=97
2C/	0c	1e	2r
1c	.	.	2g/
.	.	2r	2a/
4B\	.	2c\	2cc\
4A\	.	.	.
=98	=98	=98	=98
1G	1r	2d\	1b
.	.	2e\	.
[1F	2r	[1f	2a/
.	[2A/	.	2cc\
=99	=99	=99	=99
1F]	2A/]	2f\]	2a/
.	2A/	4e\	2.cc\
.	.	4d\	.
1r	2A/	2c\	.
.	.	.	4b\
.	2F/	2f\	2a/
=100	=100	=100	=100
0r	1G	2e\	2.g/
.	.	1d	.
.	.	.	4f/
.	1A	.	1e
.	.	2c#i\	.
=101	=101	=101	=101
1r	2.D/	1d	1d
.	4E/	.	.
[1A	4F/	1r	2r
.	4G/	.	.
.	4A/	.	2cc\
.	4B\	.	.
=102	=102	=102	=102
2A\]	2.c\	0r	2a/
2A\	.	.	2.cc\
.	4d\	.	.
2A\	2e\	.	.
.	.	.	4b\
2F\	2f\	.	2a/
=103	=103	=103	=103
1G	2e\	0r	2.g/
.	1d	.	.
.	.	.	4f/
1A	.	.	1e
.	2c#i\	.	.
=104	=104	=104	=104
[0D	[0d	1.f	0d
.	.	2f\	.
=105	=105	=105	=105
0D_	0d_	1f	1r
.	.	1d	[1f
=106	=106	=106	=106
0D_	0d_	1.a	2f/]
.	.	.	2f/
.	.	.	1f
.	.	2a\	.
=107	=107	=107	=107
0D]	0d]	1a	1d
.	.	1f	[1a
=108	=108	=108	=108
0r	0r	2r	2a/]
.	.	2.f\	2a/
.	.	.	1a
.	.	4e\	.
.	.	2c\	.
=109	=109	=109	=109
0r	0r	2.d\	1f
.	.	4c\	.
.	.	4A/	1a
.	.	4B\	.
.	.	4c\	.
.	.	4d\	.
=110	=110	=110	=110
0r	1r	2e\	2g/
.	.	1f	2f/
.	[1c	.	1g
.	.	2e\	.
=111	=111	=111	=111
0F	1c]	0f	1f
.	1c	.	1r
=112	=112	=112	=112
1F	1c	1r	0a
1F	1c	[1f	.
=113	=113	=113	=113
1F	1c	1f]	1a
1F	[1d	1f	1a
=114	=114	=114	=114
1.G	2d\]	0d	1.b
.	2B\	.	.
.	1B	.	.
2E\	.	.	2g/
=115	=115	=115	=115
1E	1B	0e	0g
1E	[1c	.	.
=116	=116	=116	=116
0F	2c\]	1A	0a
.	2A/	.	.
.	[1A	[1f	.
!!LO:LB:g=z
=117	=117	=117	=117
0D	1A]	2f\]	2.f/
.	.	2d\	.
.	.	.	4g/
.	1d	1f	2a/
.	.	.	[2b-i\
=118	=118	=118	=118
0E	2.c\	0e	4b-\]
.	.	.	4a/
.	.	.	4g/
.	4A/	.	4f/
.	1B	.	4g/
.	.	.	4f/
.	.	.	4e/
.	.	.	4d/
=119	=119	=119	=119
[0AA	[0Al	1r	2.c/
.	.	.	4d/
.	.	2.c\	2e/
.	.	.	2f/
.	.	4d\	.
=120	=120	=120	=120
0AA_	0A_	2e\	2e/
.	.	2f\	2.a/
.	.	2e\	.
.	.	.	4g/
.	.	[2a\	2f/
=121	=121	=121	=121
0AA]	0A_	2a\]	4e/
.	.	.	4d/
.	.	4g\	1d
.	.	4f\	.
.	.	1e	.
.	.	.	2c#i/
=122	=122	=122	=122
0Dl	0A]	0dl	0dl
==	==	==	==
*-	*-	*-	*-
!!!RDF**kern: l=long note in original notation
!!!RDF**kern: i=editorial accidental
!!!ENC:	Victoria Chang
!!!END:	2011/03/23/
!!!SMS:	Smijers
!!!SMS: Antonowycz, No. 93, afl. 52
!!!ONB: See Macey 1993
!!!EED:	Jesse Rodin
!!!EEV:	2011/04/03/
!!attribution-level@Jos: 4 (questionable)
!!!ONB:	Translated from MusicXML and edited on 2011/04/03/ by Craig Sapp
!!muse2ps: C^@{COA}?\n@{SCT}^I150v90,90,90,150c83Q16
